X: 202
T:The mountain rose
R:Reel
O:Ireland
B:Krassen O'Neill's p161
B:O'Neill's 1549
S:O'Neill's 1549
Z:Transcription:John B. Walsh, slight rearrangement, chords:Mike Long
M:C|
L:1/8
K:G
(gf)|\
"Am"eA~A2 e2 (dc)|"G"BAGA BcdB|\
"Am"eA~A2 (ec)dc|"Em"BAGB "G"Agfg|\
"Am"eA~A2 (3(efg) (dc)|
"G"BAGA Bcdf|"Am"eaag "G"(3(efg) dc|"Em"BAGB "Am"A2:|\
|:dc|\
"G"BGBd gfga|bgaf gedf|
"Am"eaab agab|"C"c'2 (ba) "(D)"gedc|\
"G"BGBd gfga|bgaf gedf|\
"Am"eaag "G"(3(efg) (dc)|"Em"BAGB "Am"A2:|

